X:20
T:Új a csizmám, a szegre van felakasztva
M:4/4
L:1/4
K:D
ABAB | A/G/F/G/ A<E | D2 D2 |
ddcd | ee d<B | A2 A2 |
ddcd | eedB | A2 d2 |
ABAB | A/G/F/G/ A<E | D2 D2 |

